task1.1/build/res/icons/camera-icon.svg

<svg width="32" height="32" viewBox="0 0 32 32" fill="none" xmlns="http://www.w3.org/2000/svg">
<g clip-path="url(#clip0)">
<path d="M30.9354 7.33075C30.2966 6.66155 29.4145 6.26612 28.4106 6.26612H23.3612V6.20528C23.3612 5.44482 23.057 4.71478 22.5399 4.22809C22.0228 3.71098 21.3232 3.4068 20.5627 3.4068H11.4373C10.6464 3.4068 9.94677 3.71098 9.42966 4.22809C8.91255 4.7452 8.60837 5.44482 8.60837 6.20528V6.26612H3.58935C2.58555 6.26612 1.70342 6.66155 1.06464 7.33075C0.425856 7.96954 0 8.88208 0 9.85547V25.0038C0 26.0076 0.395437 26.8897 1.06464 27.5285C1.70342 28.1673 2.61597 28.5931 3.58935 28.5931H28.4106C29.4145 28.5931 30.2966 28.1977 30.9354 27.5285C31.5741 26.8897 32 25.9771 32 25.0038V9.85547C32 8.85167 31.6046 7.96954 30.9354 7.33075ZM30.4183 25.0038H30.3878C30.3878 25.5513 30.1749 26.038 29.8099 26.403C29.4449 26.768 28.9582 26.9809 28.4106 26.9809H3.58935C3.04183 26.9809 2.55513 26.768 2.19011 26.403C1.8251 26.038 1.61217 25.5513 1.61217 25.0038V9.85547C1.61217 9.30794 1.8251 8.82125 2.19011 8.45623C2.55513 8.09121 3.04183 7.87828 3.58935 7.87828H9.46008C9.91635 7.87828 10.2814 7.51326 10.2814 7.05699V6.17486C10.2814 5.84026 10.403 5.53608 10.616 5.32315C10.8289 5.11022 11.1331 4.98855 11.4677 4.98855H20.5627C20.8973 4.98855 21.2015 5.11022 21.4144 5.32315C21.6274 5.53608 21.7491 5.84026 21.7491 6.17486V7.05699C21.7491 7.51326 22.1141 7.87828 22.5703 7.87828H28.4411C28.9886 7.87828 29.4753 8.09121 29.8403 8.45623C30.2053 8.82125 30.4183 9.30794 30.4183 9.85547V25.0038Z" fill="black"/>
<path d="M16 9.94672C13.9315 9.94672 12.0456 10.7984 10.7072 12.1368C9.33838 13.5057 8.51709 15.3612 8.51709 17.4296C8.51709 19.4981 9.3688 21.384 10.7072 22.7224C12.076 24.0912 13.9315 24.9125 16 24.9125C18.0684 24.9125 19.9544 24.0608 21.2928 22.7224C22.6616 21.3536 23.4829 19.4981 23.4829 17.4296C23.4829 15.3612 22.6312 13.4752 21.2928 12.1368C19.9544 10.7984 18.0684 9.94672 16 9.94672ZM20.1369 21.5969C19.0722 22.6311 17.6122 23.3003 16 23.3003C14.3878 23.3003 12.9277 22.6311 11.8631 21.5969C10.7985 20.5323 10.1597 19.0722 10.1597 17.46C10.1597 15.8479 10.8289 14.3878 11.8631 13.3231C12.9277 12.2585 14.3878 11.6197 16 11.6197C17.6122 11.6197 19.0722 12.2889 20.1369 13.3231C21.2015 14.3878 21.8403 15.8479 21.8403 17.46C21.8707 19.0722 21.2015 20.5323 20.1369 21.5969Z" fill="black"/>
<path d="M26.8289 12.8973C27.652 12.8973 28.3194 12.23 28.3194 11.4068C28.3194 10.5836 27.652 9.91632 26.8289 9.91632C26.0057 9.91632 25.3384 10.5836 25.3384 11.4068C25.3384 12.23 26.0057 12.8973 26.8289 12.8973Z" fill="black"/>
</g>
<defs>
<clipPath id="clip0">
<rect width="32" height="32" fill="white"/>
</clipPath>
</defs>
</svg>

<svg width="32" height="32" fill="none" xmlns="http://www.w3.org/2000/svg"><g clip-path="url(#clip0)" fill="#000"><path d="M30.935 7.33a3.44 3.44 0 00-2.524-1.064h-5.05v-.06c0-.761-.304-1.491-.821-1.978a2.783 2.783 0 00-1.977-.821h-9.126a2.802 2.802 0 00-2.829 2.798v.061H3.59a3.44 3.44 0 00-2.524 1.065A3.608 3.608 0 000 9.855v15.149a3.44 3.44 0 001.065 2.524 3.61 3.61 0 002.524 1.065h24.822a3.44 3.44 0 002.524-1.064c.64-.64 1.065-1.552 1.065-2.525V9.855a3.44 3.44 0 00-1.065-2.524zm-.517 17.674h-.03c0 .547-.213 1.034-.578 1.399a1.953 1.953 0 01-1.4.578H3.59a1.953 1.953 0 01-1.4-.578 1.953 1.953 0 01-.578-1.4V9.856c0-.547.213-1.034.578-1.399a1.953 1.953 0 011.4-.578h5.87a.818.818 0 00.821-.821v-.882c0-.335.122-.639.335-.852.213-.213.517-.334.852-.334h9.095c.334 0 .639.121.851.334.213.213.335.517.335.852v.882c0 .456.365.821.821.821h5.871c.548 0 1.034.213 1.4.578.364.365.577.852.577 1.4v15.148z"/><path d="M16 9.947a7.496 7.496 0 00-5.293 2.19 7.423 7.423 0 00-2.19 5.293c0 2.068.852 3.954 2.19 5.292A7.423 7.423 0 0016 24.912a7.496 7.496 0 005.293-2.19 7.423 7.423 0 002.19-5.292 7.496 7.496 0 00-2.19-5.293A7.496 7.496 0 0016 9.947zm4.137 11.65C19.072 22.63 17.612 23.3 16 23.3c-1.612 0-3.072-.669-4.137-1.703a5.815 5.815 0 01-1.703-4.137c0-1.612.669-3.072 1.703-4.137A5.815 5.815 0 0116 11.62c1.612 0 3.072.669 4.137 1.703a5.815 5.815 0 011.703 4.137c.03 1.612-.639 3.072-1.703 4.137zm6.692-8.7a1.49 1.49 0 100-2.98 1.49 1.49 0 000 2.98z"/></g><defs><clipPath id="clip0"><path fill="#fff" d="M0 0h32v32H0z"/></clipPath></defs></svg>
